X: 31344
T: Paddy Mills' Fancy
R: reel
M: 4/4
K: Gmajor
GF|DGGF GBAG|FGAB c2Bc|d2eg fdcA|BGAF GFEF|
DGGF GBAG|FGAB c2Bc|d2eg fdcA|AGFA G2:|:Bd|
g2gf gfdc|BG~G2 FGAB|c3A dcAG|FGAB cdef|
g2gf gedc|BG~G2 FGAB|c3A dcAG|FGAF G2:|

